build/img/icons/search.svg

<svg width="14" height="13" viewBox="0 0 14 13" fill="none" xmlns="http://www.w3.org/2000/svg">
<path fill-rule="evenodd" clip-rule="evenodd" d="M5.95256 0C7.0307 3.78427e-05 8.08645 0.302706 8.99579 0.872453C9.90513 1.4422 10.6303 2.25536 11.0861 3.21643C11.5419 4.17749 11.7094 5.24654 11.569 6.29801C11.4286 7.34947 10.986 8.33969 10.2933 9.15233L12.9983 11.8061C13.0643 11.871 13.1167 11.9481 13.1524 12.033C13.1882 12.1178 13.2065 12.2088 13.2065 12.3006C13.2065 12.3925 13.1882 12.4834 13.1524 12.5683C13.1167 12.6531 13.0643 12.7302 12.9983 12.7952C12.865 12.9263 12.6841 13 12.4955 13C12.4022 13 12.3097 12.9819 12.2234 12.9468C12.1372 12.9116 12.0588 12.8601 11.9928 12.7952L9.26653 10.0926C8.30745 10.7778 7.15209 11.1461 5.96672 11.1444C4.46429 11.1444 3.0234 10.5573 1.96102 9.51233C0.898641 8.46735 0.301805 7.05004 0.301805 5.5722C0.301805 4.09436 0.898641 2.67705 1.96102 1.63206C3.0234 0.587069 4.46429 0 5.96672 0H5.95256ZM5.95256 9.75134C6.79287 9.75134 7.61431 9.50624 8.313 9.04703C9.01169 8.58782 9.55626 7.93513 9.87783 7.17149C10.1994 6.40785 10.2835 5.56756 10.1196 4.75689C9.95567 3.94621 9.55102 3.20156 8.95683 2.61709C8.36264 2.03263 7.6056 1.6346 6.78143 1.47335C5.95727 1.3121 5.103 1.39486 4.32665 1.71117C3.55031 2.02748 2.88675 2.56313 2.4199 3.25039C1.95305 3.93764 1.70387 4.74564 1.70387 5.5722C1.70387 6.68058 2.1515 7.74356 2.94828 8.5273C3.74506 9.31104 4.82573 9.75134 5.95256 9.75134Z" fill="white"/>
</svg>

<svg width="14" height="13" fill="none" xmlns="http://www.w3.org/2000/svg"><path fill-rule="evenodd" clip-rule="evenodd" d="M5.953 0C7.03 0 8.086.303 8.996.872a5.602 5.602 0 012.09 2.344c.456.961.623 2.03.483 3.082a5.528 5.528 0 01-1.276 2.854l2.705 2.654a.698.698 0 01.154.762.717.717 0 01-1.16.227l-2.725-2.702a5.664 5.664 0 01-3.3 1.051A5.713 5.713 0 011.96 9.512 5.526 5.526 0 01.3 5.572c0-1.478.598-2.895 1.66-3.94A5.713 5.713 0 015.967 0h-.014zm0 9.751a4.3 4.3 0 002.36-.704 4.195 4.195 0 001.565-1.876 4.116 4.116 0 00.242-2.414 4.158 4.158 0 00-1.163-2.14A4.271 4.271 0 006.78 1.473a4.314 4.314 0 00-2.454.238 4.234 4.234 0 00-1.907 1.54 4.13 4.13 0 00-.716 2.321c0 1.109.448 2.172 1.244 2.955a4.285 4.285 0 003.005 1.224z" fill="#fff"/></svg>
